X: 892
T: Silver Spire, The
B: jims roots
M:4/4
L:1/8
R: reel
Q: 1/4=100
K:Dmaj
V:1 
FE |: "D"D2 FE DFAc | dcde fdAF | "G"GABG "D"FADF |
"A"GFED CEA,C | "D"D2 FE DFAc | dcde fdAF |
"G"GABG "D"FADF | [1 "Em"EA,CE "D"D2 (3A,B,C:| [2 "Em"EA,CE "D"D2 CB,||
|: "A"A,B,CD EFGF | "G"E3F GABc | "D"dcdB ABde |
"A"fdgf eA (3BBc | "D"defd "A"ceAc | "D"dcdB AFDF |
"G"GABG "D"FADF | [1 "Em"EA,CE "D"D2 CB,:| [2 "Em"EA,CE "D"D4|]
% abcbook-tune_id 6298c2873389073c67139b60


% abcbook-boost 0
% abcbook-tablature 
% abcbook-transpose 
% abcbook-lastupdated 1654178440439
% abcbook-soundfonts 
% abcbook-repeats 1


